/* XPM */
static char *rcp98963632082635371[] = {
/* columns rows colors chars-per-pixel */
"41 40 18 1 ",
"  c None",
". c #1A070F",
"X c #292F37",
"o c #53272E",
"O c #562C3A",
"+ c #733B41",
"@ c #841F19",
"# c #C04101",
"$ c #884949",
"% c #9B534A",
"& c #846A58",
"* c #B66E62",
"= c #656E87",
"- c #AF9582",
"; c #E7B19E",
": c #AFB5CE",
"> c #F9DCC5",
", c #F4F5FE",
/* pixels */
"                                         ",
"                                         ",
"                                         ",
"                                         ",
"                                         ",
"                                         ",
"                                         ",
"                                         ",
"                 .......                 ",
"                .@###@##.                ",
"               .@########.               ",
"               .@##@@@@@##.              ",
"               .@#@*****@@.              ",
"               .@@;;;;;;@..              ",
"         ..   .;@;###;###.               ",
"         .:.  .;@;,.*>*.,.               ",
"          .o....*;;;*>*;;.               ",
"           .o$$.**;;;;;;*.               ",
"           .$$...*;;***;.                ",
"           .$.X.&.*;;;;.&.               ",
"           ....&&-.....-&&.              ",
"              .----;*;----.              ",
"             .&&-..----&.+=.             ",
"             .+=%%O.--&.%%%.             ",
"              .+%%+.&-&.+O%.             ",
"               .%%+.:=O..++.             ",
"                ...%+%%. ..              ",
"                 .%%%%%.                 ",
"                 .%+.+%.                 ",
"                .O=. .+.                 ",
"                .%%. .O.                 ",
"                .%%.                     ",
"                                         ",
"                                         ",
"                                         ",
"                                         ",
"                                         ",
"                                         ",
"                                         ",
"                                         "
};
