/* XPM */
static char *rcp108326784082642991[] = {
/* columns rows colors chars-per-pixel */
"40 39 17 1 ",
"  c None",
". c #1A070F",
"X c #53272E",
"o c #562C3A",
"O c #733B41",
"+ c #841F19",
"@ c #C04101",
"# c #884949",
"$ c #9B534A",
"% c #846A58",
"& c #B66E62",
"* c #656E87",
"= c #AF9582",
"- c #E7B19E",
"; c #AFB5CE",
": c #F9DCC5",
"> c #F4F5FE",
/* pixels */
"                                        ",
"                                        ",
"                                        ",
"                                        ",
"                                        ",
"                                        ",
"                                        ",
"                                        ",
"                 .......                ",
"                .+@@+@@+.               ",
"               .+@@@@@@@+.              ",
"               .+@+++++@+.              ",
"               .+++&&&+++.              ",
"               .+&-----&+.              ",
"          ..  .-+@@@-@@@+-.             ",
"          .;. .-+>.&:&.>+-.             ",
"           .X...&--&:&--&.              ",
"            .X#.&-------&.              ",
"            .##..&-&&&-&.               ",
"            .#..%.&---&.%.              ",
"            ...%%=.....=%%.             ",
"              .====-&-====.             ",
"             .==.%=====%.==.            ",
"             .*O..%===%..O*.            ",
"             .$$$.%=%=%.$$$.            ",
"             .$oO.o*;*o.Oo$.            ",
"             .OO..$$O$$..OO.            ",
"              .. .$$$$$. ..             ",
"                 .$O.OO.                ",
"                 .O. .$.                ",
"                 .$.                    ",
"                                        ",
"                                        ",
"                                        ",
"                                        ",
"                                        ",
"                                        ",
"                                        ",
"                                        "
};
