/* XPM */
static char *rcp1052010964053123440[] = {
/* columns rows colors chars-per-pixel */
"40 40 10 1 ",
"  c #25131A",
". c #3D253B",
"X c #3D3347",
"o c #4B3E57",
"O c #595059",
"+ c #4F546B",
"@ c #7D7071",
"# c #A0938E",
"$ c #A89B96",
"% c #CFC6B8",
/* pixels */
" @@@@@@@@@$XXXoXoooooo.XXXXXXXXXXXX.XXXX",
" @@@@@@@@@$XXXoXoooooo.XXXXXXXXXXXXXXXXX",
" @@@@@@@@@$XXXoXoooooo.XXXXXXXXXXXXXXXXX",
" @@@@@@@@@$XXXoXoooooo.XXXXXXXXXXXXXXXXX",
" @@@@@@@@@$XXXoXoooooo.XXXXXXXXXXXXXXXXX",
" @@@@@@@@@$XXXoXoooooo.XXXXXXXXXXXXXXXXX",
" @@@@@@@@@$XXXoXoooooo.XXXXXXXXXXXXXXXXX",
" @@@@@@@@@$XXXoXoooooo.XXXXXXXXXXXXXXXXX",
" @@@@@@@@@$XXXoXoooooo.XXXXXXXXXXXXXXXXX",
" @@@@@@@@@$XXXoXoooooo.XXXXXXXXXXXXXXXXX",
" @@@@@@@@@$XXXoXoooooo.XXXXXXXXXXXXXXXXX",
" @@@@@@@@@$XXXoXoooooo.XXXXXXXXXXXXXXXXX",
" @@@@@@@@@$XXXoXoooooo.XXXXXXXXXXXXXXXXX",
" @@@@@@@@@$XXXoXoooooo.XXXXXXXXXXXXXXXXX",
" @@@@@@@@@$XXXoXoooooo.XXXXXXXXXXXXXXXXX",
" @@@@@@@@@$XXXoXoooooo.XXXXXXXXXXXXXXXXX",
" @@@@@@@@@$XXXoXoooooo.XXXXXXXXXXXXXXXXX",
" @@@@@@@@@$XXXoXoooooo.XXXXXXXXXXXXXXXXX",
" @@@@@@@@@$XXXoXoooooo.XXXXXXXXXXXXXXXXX",
" O@@@@@@@@$XXX+Xo++++o.XXXXXXXXXXXXXXXXX",
"  OOO@@@@O@...X.XXXXX..XXXXXXXXXXXXXXXXX",
" O@@@@@@@@$XXXoXoooooo.XXXXXXXXXXXXXXXXX",
" @@@@@@@@@$XXXoXoooooo.XXXXXXXXXXXXXXXXX",
" @@@@@@@@@$XXXoXoooooo.XXXXXXXXXXXXXXXXX",
" @@@@@@@@@$XXXoXoooooo.XXXXXXXXXXXXXXXXX",
" @@@@@@@@@$XXXoXoooooo.XXXXXXXXXXXXXXXXX",
" @@@@@@@@@$XXXoXoooooo.XXXXXXXXXXXXXXXXX",
" @@@@@@@@@$XXXoXoooooo.XXXXXXXXXXXXXXXXX",
" @@@@@@@@@$XXXoXoooooo.XXXXXXXXXXXXXXXXX",
" @@@@@@@@@$XXXoXoooooo.XXXXXXXXXXXXXXXXX",
" @@@@@@@@@$XXXoXoooooo.XXXXXXXXXXXXXXXXX",
" @@@@@@@@@$XXXoXoooooo.XXXXXXXXXXXXXXXXX",
" @@@@@@@@@@%%%%%%%%%%%@%%%###%%%%%%$$$$$",
" @@@@@@@@@@@@@@@@@@@@@O@@@@@@@@@@@@@@@@@",
" @@@@@@@@@@@@@@@@@@@@@@@@@@@@@@@@@@@@@@@",
" @@@@@@@@@@@@@@@@@@@@@@@@@@@@@@@@@@@@@@@",
" @@@@@@@@@@@@@@@@@@@@@@@@@@@@@@@@@@@@@@@",
" @@@@@@@@@@@@@@@@@@@@@@@@@@@@@@@@@@@@@@@",
" @@@@@@@@@@@@@@@@@@@@@O@@@@@@@@@@@@@@@@@",
" O@@@@@@@@@@@@@@@@@@@@O@@@@@@@@@@@@@@@@@"
};
