/* XPM */
static char *rcp73211000035623392[] = {
/* columns rows colors chars-per-pixel */
"41 30 5 1 ",
"  c #3D253B",
". c #3D3347",
"X c #595059",
"o c #7D7071",
"O c #A0938E",
/* pixels */
"OOOOOoOOOOOOOOOOoOOOOOOOOOOOOoOOOOOOOOOOo",
"OOOOOoOOOOOOOOOOoOOOOOOOOOOOOoOOOOOOOOOOo",
"oooooooooooooooooooooooooooooXooooooooooo",
"OOOOOOOOOoOOOOOOOOOOOOoOOOOOOOOOOoOOOOOOO",
"OOOOOOOOOoOOOOOOOOOOOOoOOOOOOOOOOoOOOOOOO",
"OOOOOOOOOoOOOOOOOOOOOOoOOOOOOOOOOoOOOOOOO",
"OOOOOOOOOXOOOOOOOOOOOoXoOOOOOOOOOXOOOOOOO",
"XXXXXXXXXXXXXXXXXXXXXXXXXXXXXXXXXXXXXXXXX",
"OOOooXooooooooooXooOOOOOOOOooXOOOOOOOOOOX",
"oooooXooooooooooXooooooooooooXOOOOOOOOOOX",
"oooooXooooooooooXooooooooooooXOooooooooOX",
"oooooXooooooooooXooooooooooooXooooooooooX",
"XXXXX.XXXXXXXXXX.XXXXXXXXXXXX.oooooooooo.",
"oOOOOOOOooXoooooooooooXoooooooXXXXXXXXXXo",
"ooooooooooXoooooooooooXoooooooooooXoooooo",
"oooooooooo.ooooooooooo.ooooooooooo.oooooo",
"oooooooooo.ooooooooooo.ooooooooooX.Xooooo",
".......... ........... ........... ......",
"ooooO.oooooooooo.oooooooooooo.oooooooooo.",
"XXXXo.oooooooooo.oooooooooooo.oooooooooo.",
"XXXXX XXXXXXXXXX XXXXXXXXXXXX XXXXXXXXXX ",
"XXXXX XXXXXXXXXX XXXXXXXXXXXX XXXXXXXXXX ",
"XXXXX                                    ",
"     XXXXX XXoooooooXX XXXXXXXXXXX XXoooo",
"XXXXXXXXXX XXXXXXXXXXX XXXXXXXXXXX XXXXXX",
"XXXXXXXXXX XXXXXXXXXXX XXXXXXXXXXX XXXXXX",
"XXXXXXXXX   XXXXXXXXX   XXXXXXXXX   XXXXX",
"OOOOOOOOOOOOOOOOOOOOOOOOOOOOOoOoooOOOOOOO",
"XXXXXXXXXXXXXXXXXXXXXXXXXXXXXXXXXXXXXXXXX",
"XXXXXXXXXXXXXXXXXXXXXXXXXXXXXXXXXXXXXXXXX"
};
